icons/triangle-help-outline.svg

<svg xmlns="http://www.w3.org/2000/svg" width="24" height="24" viewBox="0 0 24 24">
  <path d="M9.37135227,3.70432092 C10.1698214,2.25255887 11.9939942,1.72296031 13.4457562,2.52142944 C13.9442354,2.79559297 14.3544842,3.20584177 14.6286477,3.70432092 L14.6286477,3.70432092 L22.2461053,17.5542438 C23.0445744,19.0060058 22.5149759,20.8301786 21.0632138,21.6286477 C20.6202789,21.8722619 20.1229665,22 19.6174576,22 L19.6174576,22 L4.38254244,22 C2.72568819,22 1.38254244,20.6568542 1.38254244,19 C1.38254244,18.4944911 1.5102805,17.9971787 1.75389472,17.5542438 L1.75389472,17.5542438 Z M12.3764912,4.2235543 C11.9128771,4.03449217 11.3709293,4.2188035 11.1237841,4.66815842 L11.1237841,4.66815842 L3.50632653,18.5180813 C3.42512179,18.6657262 3.38254244,18.831497 3.38254244,19 C3.38254244,19.5522847 3.83025769,20 4.38254244,20 L4.38254244,20 L19.6174576,20 C19.7859605,20 19.9517313,19.9574206 20.0993763,19.8762159 C20.583297,19.6100595 20.7598298,19.0020019 20.4936735,18.5180813 L20.4936735,18.5180813 L12.8762159,4.66815842 C12.7848281,4.5019987 12.6480785,4.3652491 12.4819187,4.27386126 L12.4819187,4.27386126 Z M12.0001686,16 C12.5524586,16 13.0001686,16.4477 13.0001686,17 C13.0001686,17.5523 12.5524586,18 12.0001686,18 C11.4478886,18 11.0001686,17.5523 11.0001686,17 C11.0001686,16.4477 11.4478886,16 12.0001686,16 Z M12.0001686,10 C12.5537486,10 13.1555886,10.16344 13.6376686,10.525 C14.1397686,10.90158 14.5001686,11.48991 14.5001686,12.25 C14.5001686,12.69838 14.3847686,13.07994 14.1710686,13.4004 C13.9664386,13.70737 13.7009186,13.91339 13.4787086,14.06154 C13.3700286,14.134 13.2594286,14.20036 13.1657686,14.25656 L13.1657686,14.25656 C13.0591686,14.32052 12.9769786,14.37001 12.9005986,14.42093 C12.7478286,14.52279 12.6695886,14.59803 12.6242286,14.66609 C12.3944886,15.01075 11.9288386,15.10391 11.5841786,14.87417 C11.2395186,14.64442 11.1463586,14.17878 11.3760986,13.83412 C11.5807386,13.52712 11.8462486,13.32107 12.0684786,13.1729 C12.1772086,13.10041 12.2878586,13.03402 12.3815586,12.9778 L12.3815586,12.9778 C12.4880486,12.9139 12.5702386,12.86441 12.6466286,12.81349 C12.7994086,12.71162 12.8776486,12.63639 12.9229986,12.56835 C12.9593586,12.51381 13.0001686,12.42662 13.0001686,12.25 C13.0001686,12.01009 12.9022286,11.84842 12.7376686,11.725 C12.5530786,11.58656 12.2799186,11.5 12.0001686,11.5 C11.6314086,11.5 11.4046986,11.59004 11.2599386,11.68654 C11.1104886,11.78617 11.0014986,11.92438 10.9209886,12.08541 C10.7357486,12.45589 10.2852386,12.60606 9.91475858,12.42082 C9.54426858,12.23558 9.39409858,11.78507 9.57934858,11.41459 C9.74882858,11.07562 10.0148386,10.71383 10.4278886,10.43846 C10.8456386,10.15996 11.3689286,10 12.0001686,10 Z"/>
</svg>

<svg xmlns="http://www.w3.org/2000/svg" viewBox="0 0 24 24">
  <path d="M9.37 3.7a3 3 0 0 1 5.26 0l7.62 13.85A3 3 0 0 1 19.62 22H4.38a3 3 0 0 1-2.63-4.45zm3 .52a1 1 0 0 0-1.25.45L3.51 18.52A1 1 0 0 0 4.38 20h15.24a1 1 0 0 0 .87-1.48L12.88 4.67a1 1 0 0 0-.4-.4zM12 16a1 1 0 1 1 0 2 1 1 0 0 1 0-2zm0-6c.55 0 1.16.16 1.64.53.5.37.86.96.86 1.72a2.03 2.03 0 0 1-1.02 1.81l-.31.2-.27.16a.96.96 0 0 0-.28.25.75.75 0 0 1-1.24-.84c.2-.3.47-.5.69-.66l.31-.2c.1-.06.19-.1.27-.16.15-.1.23-.17.27-.24a.54.54 0 0 0 .08-.32c0-.24-.1-.4-.26-.53a1.26 1.26 0 0 0-.74-.22c-.37 0-.6.09-.74.19a1 1 0 0 0-.34.4.75.75 0 0 1-1.34-.68c.17-.33.43-.7.85-.97.42-.28.94-.44 1.57-.44z"/>
</svg>
